teeny/solid/tiktok.svg

<svg width="15" height="15" viewBox="0 0 15 15" fill="none" xmlns="http://www.w3.org/2000/svg">
<path fill-rule="evenodd" clip-rule="evenodd" d="M9 0H10V1C10 3.20914 11.7909 5 14 5V6C12.3644 6 10.9122 5.21466 10 4.00049V11C10 13.2091 8.20914 15 6 15C3.79086 15 2 13.2091 2 11C2 8.79086 3.79086 7 6 7V8C4.34315 8 3 9.34315 3 11C3 12.6569 4.34315 14 6 14C7.65685 14 9 12.6569 9 11V0Z" fill="black"/>
</svg>

<svg viewBox="0 0 15 15" xmlns="http://www.w3.org/2000/svg"><path fill-rule="evenodd" d="M9 0h1v1c0 2.2 1.79 4 4 4v1c-1.64 0-3.09-.79-4-2v6.99c0 2.2-1.8 4-4 4 -2.21 0-4-1.8-4-4 0-2.21 1.79-4 4-4v1c-1.66 0-3 1.34-3 3 0 1.65 1.34 3 3 3 1.65 0 3-1.35 3-3v-11Z"/></svg>
